X:1
T:Title
L:1/8
M:4/4
I:linebreak $
K:G
V:1 treble nm="Voice" snm="Voice"
V:1
 AF | DAFA DAFA | defe dcBA | eAfA gAfA | (3efe (3dcB ABA G2 |$ DA=FA DAFA | de=fe dcBA | %7
 eA=fA gece | %8
